site/img/logos/platzi.svg

<?xml version="1.0" encoding="UTF-8"?>
<svg width="400px" height="400px" viewBox="0 0 400 400" version="1.1" xmlns="http://www.w3.org/2000/svg" xmlns:xlink="http://www.w3.org/1999/xlink">
    <title>logos/platzi</title>
    <g id="logos/platzi" stroke="none" stroke-width="1" fill="none" fill-rule="evenodd">
        <path d="M49.0559709,217.411984 C56.899487,209.568468 69.5584327,209.477265 77.5139356,217.138373 L77.7927496,217.411984 L106.528487,246.148763 C114.372003,253.99125 114.463206,266.650183 106.802098,274.605686 L106.528487,274.8845 L77.7927496,303.621279 L92.1600972,317.988626 L77.7927496,332.357016 C69.9492334,340.200532 57.2902877,340.291735 49.3347848,332.630627 L49.0559709,332.357016 L5.95184459,289.252889 C-1.89167154,281.409373 -1.98287521,268.750427 5.67823356,260.794925 L5.95184459,260.516111 L49.0559709,217.411984 Z M63.4243602,231.780374 L20.3191922,274.8845 L63.4243602,317.988626 L77.7927496,303.621279 L63.4243602,289.252889 L92.1600972,260.516111 L63.4243602,231.780374 Z M310.832961,248.459602 L310.832961,261.082075 L328.696308,261.082075 L328.696308,270.495021 L310.832961,270.495021 L310.832961,292.637737 C310.832961,305.794611 319.06981,306.650901 329.659895,302.906974 L330.835993,311.678223 C313.186198,317.13369 299.387627,313.068914 299.387627,292.851289 L299.387627,270.495021 L288.904839,270.495021 L288.904839,261.082075 L299.387627,261.082075 L299.387627,248.459602 L310.832961,248.459602 Z M204.347914,237.655965 L215.900545,237.655965 L215.900545,294.028428 C215.900545,302.585084 218.146485,305.260211 227.025031,303.86952 L227.453176,312.85432 C211.622218,315.42215 204.347914,311.357374 204.347914,294.134683 L204.347914,237.655965 Z M259.125929,259.898645 L259.628347,259.905353 C267.008905,259.905353 274.069656,261.724189 280.808517,264.719122 L280.808871,298.063129 C280.820519,302.226509 281.085561,304.796181 286.370239,304.29704 L286.370239,312.21304 L285.829929,312.310709 C278.623704,313.557379 271.39453,312.538716 271.39453,304.189743 L271.394113,302.051933 L271.243941,302.412846 C268.260249,309.354728 261.1049,313.282882 253.63848,313.282882 C237.913776,313.282882 230.319666,300.660409 230.319666,286.112845 C230.637306,269.168604 242.592143,259.773533 259.125929,259.898645 L259.125929,259.898645 Z M170.258486,237.655548 C186.945735,237.655548 196.67953,249.850918 196.67953,264.076592 C196.67953,278.089756 186.731142,290.070532 170.258486,290.070532 L151.753442,290.070532 L151.753442,312.534097 L139.238266,312.534097 L139.238266,237.655548 L170.258486,237.655548 Z M398.822861,261.082492 L398.822861,312.533889 L387.162933,312.533889 L387.162933,261.082492 L398.822861,261.082492 Z M379.024318,260.974882 L379.024318,262.47287 L363.086063,287.182375 L352.603274,302.478933 L378.917022,302.478933 L378.917022,312.533576 L336.023322,312.533576 L336.023322,310.18034 L350.999032,286.754229 L362.230814,270.495125 L337.627565,270.495125 L337.627565,260.974882 L379.024318,260.974882 Z M258.773098,269.318299 C248.932007,269.318299 242.299401,274.988359 241.978552,286.112845 C241.978552,295.525791 246.57877,302.906349 256.099013,302.906349 C264.762965,302.906349 269.255887,296.167488 269.576735,286.647245 L269.576735,271.457983 C266.046359,269.853741 262.08888,269.318299 258.773098,269.318299 Z M170.258486,248.460227 L151.538849,248.460227 L151.538849,279.159598 L170.258486,279.159598 C178.708887,279.159598 184.698754,272.420737 184.698754,263.756785 C184.698754,255.091791 178.92348,248.460227 170.258486,248.460227 Z M393.047587,237.533459 C396.576921,237.533459 400,239.886695 400,244.379617 C400,248.978793 396.576921,251.33203 393.153842,251.33203 C389.624508,251.33203 385.987878,249.08609 385.987878,244.379617 C385.987878,239.779399 389.517211,237.533459 393.047587,237.533459 Z" id="Shape" fill="#FFFFFE"></path>
    </g>
</svg>

<svg width="400" height="400" viewBox="0 0 400 400" xmlns="http://www.w3.org/2000/svg"><path d="M49.056 217.412c7.843-7.844 20.502-7.935 28.458-.274l.279.274 28.735 28.737c7.844 7.842 7.935 20.501.274 28.457l-.274.279-28.735 28.736L92.16 317.99l-14.367 14.368c-7.844 7.844-20.503 7.935-28.458.274l-.279-.274-43.104-43.104c-7.844-7.844-7.935-20.503-.274-28.458l.274-.279 43.104-43.104zm14.368 14.368L20.32 274.885l43.105 43.104 14.369-14.368-14.369-14.368 28.736-28.737-28.736-28.736zm247.409 16.68v12.622h17.863v9.413h-17.863v22.143c0 13.157 8.237 14.013 18.827 10.269l1.176 8.771c-17.65 5.456-31.448 1.39-31.448-18.827v-22.356h-10.483v-9.413h10.483V248.46h11.445zm-106.485-10.804H215.9v56.372c0 8.557 2.245 11.232 11.124 9.842l.428 8.984c-15.83 2.568-23.105-1.497-23.105-18.72v-56.478zm54.778 22.243l.502.006c7.38 0 14.442 1.82 21.18 4.814v33.344c.013 4.164.278 6.733 5.562 6.234v7.916l-.54.098c-7.206 1.246-14.435.228-14.435-8.121v-2.138l-.151.36c-2.984 6.943-10.14 10.87-17.606 10.87-15.724 0-23.318-12.622-23.318-27.17.317-16.943 12.272-26.338 28.806-26.213zm-88.868-22.243c16.688 0 26.422 12.195 26.422 26.42 0 14.014-9.949 25.995-26.422 25.995h-18.505v22.463h-12.515v-74.878h31.02zm228.565 23.426v51.452h-11.66v-51.452h11.66zm-19.799-.107v1.498l-15.938 24.71-10.483 15.296h26.314v10.055h-42.894v-2.354L351 286.754l11.232-16.259h-24.603v-9.52h41.396zm-120.25 8.343c-9.842 0-16.475 5.67-16.795 16.795 0 9.413 4.6 16.793 14.12 16.793 8.664 0 13.157-6.739 13.478-16.259v-15.189c-3.53-1.604-7.488-2.14-10.804-2.14zm-88.516-20.858h-18.72v30.7h18.72c8.45 0 14.44-6.74 14.44-15.403 0-8.665-5.775-15.297-14.44-15.297zm222.79-10.927c3.529 0 6.952 2.354 6.952 6.847 0 4.599-3.423 6.952-6.846 6.952-3.53 0-7.166-2.246-7.166-6.952 0-4.6 3.53-6.847 7.06-6.847z" fill="#FFFFFE" fill-rule="evenodd"/></svg>
